; G-Code generated by Simplify3D(R) Version 5.1.2
; Oct 7, 2023 at 9:43:17 PM
; Settings Summary
;   processName,Process 1
;   autoConfigureMaterial,PLA
;   autoConfigureQuality,High
;   targetModels,Corne_Chocolate_Left_usb
;   profileName,Creality Ender 3 V2
;   profileVersion,2022-11-13 08:00:00
;   app,S3D-Software 5.1.2
;   technology,fff
;   baseProfile,
;   extruder,Primary Extruder
;   toolheadNumber,0
;   nozzleDiameter,0.40000
;   extrusionMultiplier,0.90000
;   extrusionWidthMode,manual
;   extrusionWidth,0.40000
;   useRetraction,1
;   retractDistance,4.00000
;   extraRestartDistance,0.00000
;   retractVerticalLift,0.00000
;   retractSpeed,2400.00000
;   useCoasting,0
;   coastingDistance,0.20000
;   useWiping,0
;   wipingDistance,5.00000
;   speedMaxFlowRate,1000.00000
;   toolheadOffsetX,0.00000
;   toolheadOffsetY,0.00000
;   filamentDiameter,1.75000
;   filamentPricePerKilogram,46.00000
;   filamentDensity,1.25000
;   primaryExtruder,Primary Extruder
;   layerHeight,0.10000
;   topSolidLayers,4
;   bottomSolidLayers,4
;   outlinePerimeters,2
;   useVaseMode,0
;   useAdaptiveLayerHeights,0
;   minAdaptiveLayerHeight,0.10000
;   maxAdaptiveLayerHeight,0.30000
;   adaptiveSmoothingLevel,5
;   horizontalOuterCompensation,0.00000
;   horizontalInnerCompensation,0.00000
;   firstLayerUnits,percentage
;   firstLayerHeightPercentage,120
;   firstLayerWidthPercentage,150
;   firstLayerSpeedPercentage,50
;   firstLayerHeightAbsolute,0.30000
;   firstLayerWidthAbsolute,0.40000
;   firstLayerSpeedAbsolute,900.00000
;   startPointStrategy,closest
;   alignStartPointsX,0.00000
;   alignStartPointsY,0.00000
;   restrictStartPoints,1
;   perimeterPrintingOrder,inside_out
;   islandPrintingOrder,closest
;   printInfillBeforePerimeters,0
;   useSkirt,1
;   skirtExtruder,Primary Extruder
;   skirtLayers,2
;   skirtOffset,4.00000
;   skirtOutlines,2
;   useRaft,0
;   raftExtruder,Primary Extruder
;   raftBaseLayers,2
;   raftTopLayers,3
;   raftOffset,3.00000
;   raftSeparationDistance,0.14000
;   raftSpeedUnits,percentage
;   raftSpeedPercentage,30
;   raftSpeedAbsolute,600.00000
;   usePrimePillar,0
;   primePillarExtruder,All Extruders
;   primePillarWidth,12.00000
;   primePillarLocation,north_west
;   primePillarSpeedPercentage,100
;   primePillarInfillPercentage,100
;   autoStopPrimePillar,1
;   primePillarLayersAfterAutoStop,0
;   useOozeShield,0
;   oozeShieldExtruder,All Extruders
;   oozeShieldOffset,2.00000
;   oozeShieldOutlines,1
;   oozeShieldSidewallShape,waterfall
;   oozeShieldSidewallAngle,30
;   oozeShieldSpeedPercentage,100
;   autoStopOozeShield,1
;   oozeShieldLayersAfterAutoStop,0
;   sparseInfillExtruder,Primary Extruder
;   sparseInfillPattern,rectilinear
;   sparseInfillRotation,0
;   sparseInfillPercentage,30
;   sparseInfillExtrusionWidthPercentage,100
;   sparseInfillCombinedLayers,1
;   denseInfillLayers,0
;   denseInfillPercentage,50
;   infillOutlineOverlapPercentage,15
;   minInfillLength,5.00000
;   externalInfillPattern,rectilinear
;   externalInfillRotation,0
;   solidInfillThresholdArea,25.00000
;   solidInfillExtraExpansion,0.00000
;   useMonotonic,0
;   useDiaphragm,0
;   diaphragmSolidLayers,3
;   diaphragmSpacingLayers,20
;   topLayerExtraExpansion,1.00000
;   topLayerExtrusionModifier,100
;   overrideFanSpeedForTopLayer,0
;   topLayerFanSpeedPercentage,100
;   useIroning,0
;   ironingOutlineOffsetPercentage,50
;   ironingExtrusionWidthPercentage,25
;   ironingExtrusionModifier,15
;   ironingSpeedModifier,30
;   sparseSupportExtruder,Primary Extruder
;   sparseSupportInfillPattern,aligned
;   sparseSupportInfillRotation,0
;   sparseSupportInfillPercentage,40
;   sparseSupportOutlines,0
;   sparseSupportCombinedLayers,1
;   upperDenseSupportLayers,0
;   lowerDenseSupportLayers,0
;   denseSupportExtruder,Primary Extruder
;   denseSupportInfillPercentage,70
;   denseSupportExtraExpansion,0.00000
;   baseSupportLayers,0
;   supportInflationDistance,0.00000
;   supportHorizontalPartOffset,0.30000
;   supportUpperSeparationLayers,1
;   supportLowerSeparationLayers,1
;   temperatureController,Primary Extruder
;   enableTemperatureController,1
;   temperatureNumber,0
;   temperatureType,extruder
;   stabilizeAtStartup,1
;   temperatureSetpoints,1|210
;   useIdleCooldown,0
;   cooldownTemperature,150
;   cooldownRequiredIdleTime,180
;   cooldownReheatTime,60
;   temperatureController,Heated Build Platform
;   enableTemperatureController,1
;   temperatureNumber,0
;   temperatureType,platform
;   stabilizeAtStartup,1
;   temperatureSetpoints,1|60
;   useIdleCooldown,0
;   cooldownTemperature,150
;   cooldownRequiredIdleTime,180
;   cooldownReheatTime,60
;   fan,Cooling Fan
;   fanNumber,0
;   fanType,extruder
;   blipFanToFullPower,0
;   fanSetpoints,1|0,2|100
;   increaseFanForQuickLayers,0
;   fanMaxQuickLayerTime,45.00000
;   fanMinQuickLayerTime,15.00000
;   maxQuickLayerFanSpeedPercentage,100
;   defaultPrintSpeed,2400.00000
;   outerPerimeterSpeedPercentage,50
;   innerPerimeterSpeedPercentage,80
;   topLayerSpeedPercentage,50
;   solidInfillSpeedPercentage,80
;   sparseSupportSpeedPercentage,80
;   denseSupportSpeedPercentage,70
;   travelSpeedXY,4800.00000
;   travelSpeedZ,1000.00000
;   reduceSpeedForQuickLayers,1
;   speedMaxQuickLayerTime,15.00000
;   minQuickLayerSpeedPercentage,20
;   reduceSpeedForShortPerimeters,1
;   speedMaxShortPerimeterLength,80.00000
;   minShortPerimeterSpeedPercentage,50
;   reduceSpeedForMaxFlowRate,0
;   accelXY,500.00000
;   accelZ,100.00000
;   accelE,1000.00000
;   jerkXY,600.00000
;   jerkZ,18.00000
;   jerkE,300.00000
;   exportFileFormat,gcode
;   useStickyCommands,1
;   use5D,1
;   relativeExtrusionDistances,0
;   allowExtruderAxisZeroing,1
;   independentExtruderAxes,0
;   includeM10123,0
;   includeThumbnailImages,0
;   thumbnailImageEncoding,standard
;   thumbnailImageSizes,300|300
;   x3gMachineProfile,r2
;   overrideStepsPerMillimeter,0
;   stepsPerMillimeterX,88.57319
;   stepsPerMillimeterY,88.57319
;   stepsPerMillimeterZ,400.00000
;   stepsPerMillimeterA,96.27520
;   stepsPerMillimeterB,96.27520
;   xyzFileFormatVersion,1
;   makerBotMachineProfile,replicator_5
;   makerBotModelExtruder,mk13
;   makerBotSupportExtruder,mk14_s
;   makerBotModelMaterial,pla
;   makerBotSupportMaterial,pva
;   globalOffsetX,0.00000
;   globalOffsetY,0.00000
;   globalOffsetZ,0.00000
;   applyToolheadOffsets,0
;   buildVolumeShape,rectangular
;   buildVolumeX,220.00000
;   buildVolumeY,220.00000
;   buildVolumeZ,250.00000
;   buildVolumeDiameter,200.00000
;   originOffsetX,-5.00000
;   originOffsetY,-5.00000
;   originOffsetZ,0.00000
;   homingDirectionX,min
;   homingDirectionY,min
;   homingDirectionZ,min
;   mirrorVisualX,0
;   mirrorVisualY,1
;   mirrorVisualZ,0
;   machineBackgroundModel,Creality_Ender3V2.stl
;   startingScript,G28 ; home all axes|G1 X5 Y10 Z0.2 F3000 ; get ready to prime|G92 E0 ; reset extrusion distance|G1 X160 E15 F600 ; prime nozzle|G1 X180 F5000 ; quick wipe
;   preLayerChangeScript,
;   postLayerChangeScript,
;   preRetractionScript,
;   postRetractionScript,
;   preToolChangeScript,
;   postToolChangeScript,
;   processChangeScript,
;   endingScript,G28 X0 ; home X axis|M106 S0 ; turn off cooling fan|M104 S0 ; turn off extruder|M140 S0 ; turn off build platform|M84 ; disable motors
;   postProcessingScript,
;   useBridging,1
;   bridgingThresholdArea,50.00000
;   bridgingInfillExtraExpansion,0.00000
;   bridgingExtrusionModifier,100
;   bridgingSpeedModifier,100
;   overrideFanSpeedForBridging,0
;   bridgingFanSpeedPercentage,100
;   useFixedBridgingAngle,0
;   fixedBridgingAngle,0
;   applyBridgingToPerimeters,0
;   bridgingPerimeterExtraOverlap,0.00000
;   minBridgingPerimeterLength,10.00000
;   useToolChangeRetraction,1
;   toolChangeRetractDistance,12.00000
;   toolChangeExtraRestartDistance,-0.50000
;   toolChangeRetractSpeed,600.00000
;   toolChangePrimeOnFirstUse,0
;   toolChangeRetractAtEnd,0
;   externalThinWallType,perimeters_only
;   internalThinWallType,gap_fill
;   thinWallAllowedOverlapPercentage,10
;   singleExtrusionMinLength,1.00000
;   singleExtrusionMinWidthPercentage,50
;   singleExtrusionMaxWidthPercentage,200
;   singleExtrusionEndpointExtensionDistance,0.20000
;   onlyRetractWhenCrossingOutlines,1
;   retractBetweenLayers,1
;   retractOnTopLayers,0
;   useRetractionMinTravel,0
;   retractionMinTravel,3.00000
;   useRetractionMinExtrusion,0
;   retractionMinExtrusion,3.00000
;   onlyVerticalLiftOnTopLayers,0
;   retractWhileWiping,0
;   wipingMode,outer_perimeter
;   avoidCrossingOutlines,0
;   maxMovementDetourFactor,3.00000
;   openLoopSlicingBehavior,heal
;   openLoopThickenWidth,0.50000
;   slicingRegionRepairMode,positive
G90
M82
M106 S0 P0
M140 S60
M190 S60
M104 S210 T0
M109 S210 T0
G28 ; home all axes
G1 X5 Y10 Z0.2 F3000 ; get ready to prime
G92 E0 ; reset extrusion distance
G1 X160 E15 F600 ; prime nozzle
G1 X180 F5000 ; quick wipe
; process Process 1
; layer 1, Z = 0.1200
T0
G92 E0.00000
G1 E-4.00000 F2400
; feature skirt
; tool H0.1200 W0.600
G1 Z0.1200 F1000
G1 X57.151 Y61.328 F4800
G92 E0.00000
G1 E4.00000 F2400
G92 E0.00000
G1 X58.696 Y60.138 E0.05254 F1200
G1 X61.125 Y59.482 E0.12032
G1 X63.059 Y59.734 E0.17286
G1 X81.000 Y70.060 E0.73055
G1 X118.278 Y75.602 E1.74588
G1 X119.195 Y75.932 E1.77214
G1 X120.662 Y76.820 E1.81833
G1 X121.379 Y77.477 E1.84454
G1 X130.500 Y89.978 E2.26146
G1 X186.155 Y89.978 E3.76083
G1 X187.956 Y90.724 E3.81334
G1 X189.734 Y92.503 E3.88110
G1 X190.480 Y94.304 E3.93362
G1 X190.480 Y159.107 E5.67946
G1 X189.734 Y160.908 E5.73198
G1 X187.956 Y162.686 E5.79973
G1 X186.155 Y163.432 E5.85225
G1 X152.477 Y163.432 E6.75954
G1 X152.477 Y163.857 E6.77100
G1 X151.731 Y165.658 E6.82351
G1 X149.953 Y167.437 E6.89127
G1 X148.152 Y168.183 E6.94379
G1 X132.456 Y168.183 E7.36665
G1 X130.952 Y169.687 E7.42396
G1 X129.151 Y170.433 E7.47648
G1 X102.600 Y170.433 E8.19177
G1 X100.799 Y169.687 E8.24429
G1 X99.295 Y168.183 E8.30159
G1 X83.599 Y168.183 E8.72446
G1 X81.798 Y167.437 E8.77698
G1 X80.044 Y165.683 E8.84381
G1 X63.642 Y165.683 E9.28568
G1 X61.384 Y163.424 E9.37172
G1 X42.390 Y163.424 E9.88343
G1 X39.520 Y160.554 E9.99279
G1 X39.520 Y92.680 E11.82135
G1 X39.851 Y91.439 E11.85597
G1 X57.151 Y61.328 E12.79154
G92 E0.00000
G1 E-4.00000 F2400
G1 X57.612 Y61.730 F4800
G92 E0.00000
G1 E4.00000 F2400
G92 E0.00000
G1 X58.968 Y60.686 E0.04611 F1200
G1 X61.166 Y60.093 E0.10745
G1 X62.863 Y60.313 E0.15356
G1 X80.799 Y70.637 E0.71109
G1 X118.131 Y76.186 E1.72789
G1 X118.935 Y76.476 E1.75092
G1 X120.300 Y77.302 E1.79390
G1 X120.929 Y77.879 E1.81690
G1 X130.195 Y90.578 E2.24042
G1 X186.036 Y90.578 E3.74479
G1 X187.616 Y91.233 E3.79088
G1 X189.226 Y92.843 E3.85221
G1 X189.880 Y94.423 E3.89829
G1 X189.880 Y158.988 E5.63771
G1 X189.226 Y160.568 E5.68379
G1 X187.616 Y162.178 E5.74512
G1 X186.036 Y162.832 E5.79120
G1 X151.878 Y162.832 E6.71145
G1 X151.878 Y163.738 E6.73585
G1 X151.223 Y165.319 E6.78193
G1 X149.613 Y166.928 E6.84326
G1 X148.033 Y167.583 E6.88934
G1 X132.207 Y167.583 E7.31569
G1 X130.612 Y169.178 E7.37648
G1 X129.032 Y169.833 E7.42256
G1 X102.720 Y169.833 E8.13143
G1 X101.139 Y169.178 E8.17751
G1 X99.544 Y167.583 E8.23830
G1 X83.718 Y167.583 E8.66465
G1 X82.138 Y166.928 E8.71074
G1 X80.528 Y165.319 E8.77206
G1 X80.430 Y165.083 E8.77894
G1 X63.891 Y165.083 E9.22453
G1 X61.633 Y162.824 E9.31057
G1 X42.639 Y162.824 E9.82228
G1 X40.120 Y160.306 E9.91825
G1 X40.120 Y92.759 E11.73800
G1 X40.411 Y91.669 E11.76838
G1 X57.612 Y61.730 E12.69861
G92 E0.00000
G1 E-4.00000 F2400
; feature inner perimeter
G1 X127.553 Y95.778 F4800
G92 E0.00000
G1 E4.00000 F2400
G92 E0.00000
G1 X184.680 Y95.778 E1.53905 F960
G1 X184.680 Y157.632 E3.20545
G1 X146.677 Y157.632 E4.22926
G1 X146.677 Y162.383 E4.35724
G1 X127.676 Y162.383 E4.86915
G1 X127.676 Y164.633 E4.92977
G1 X104.075 Y164.633 E5.56561
G1 X104.075 Y162.383 E5.62623
G1 X85.074 Y162.383 E6.13814
G1 X85.074 Y159.883 E6.20549
G1 X66.572 Y159.883 E6.70394
G1 X66.572 Y157.124 E6.77825
G1 X64.272 Y157.124 E6.84020
G1 X64.272 Y157.624 E6.85367
G1 X45.320 Y157.624 E7.36426
G1 X45.320 Y93.563 E9.09013
G1 X61.445 Y65.497 E9.96216
G1 X79.059 Y75.635 E10.50970
G1 X116.764 Y81.240 E11.53666
G1 X117.084 Y81.433 E11.54671
G1 X127.553 Y95.778 E12.02515
; feature outer perimeter
G1 X127.858 Y95.178 F4800
G92 E0.00000
G1 X185.056 Y95.178 E1.54096 F600
G1 X185.280 Y95.403 E1.54951
G1 X185.280 Y158.008 E3.23614
G1 X185.056 Y158.232 E3.24469
G1 X147.277 Y158.232 E4.26247
G1 X147.277 Y162.759 E4.38440
G1 X147.053 Y162.983 E4.39295
G1 X128.276 Y162.983 E4.89881
G1 X128.276 Y165.009 E4.95339
G1 X128.052 Y165.233 E4.96194
G1 X103.699 Y165.233 E5.61802
G1 X103.475 Y165.009 E5.62656
G1 X103.475 Y162.983 E5.68114
G1 X84.698 Y162.983 E6.18701
G1 X84.474 Y162.759 E6.19555
G1 X84.474 Y160.483 E6.25687
G1 X65.972 Y160.483 E6.75532
G1 X65.972 Y157.724 E6.82962
G1 X64.872 Y157.724 E6.85925
G1 X64.872 Y158.224 E6.87272
G1 X44.720 Y158.224 E7.41564
G1 X44.720 Y93.403 E9.16198
G1 X61.112 Y64.872 E10.04846
G1 X61.418 Y64.789 E10.05699
G1 X79.260 Y75.059 E10.61161
G1 X116.972 Y80.664 E11.63876
G1 X117.497 Y80.982 E11.65529
G1 X127.858 Y95.178 E12.12877
; feature solid layer
G1 X123.947 Y91.703 F4800
G92 E0.00000
G1 X113.517 Y81.273 E0.39738 F960
G1 X114.514 Y81.421 E0.42453
G1 X121.655 Y88.563 E0.69661
G1 X119.363 Y85.422 E0.80135
G1 X115.511 Y81.569 E0.94814
G1 X116.507 Y81.718 E0.97529
G1 X117.071 Y82.282 E0.99679
G92 E0.00000
G1 E-4.00000 F2400
G1 X184.170 Y96.772 F4800
G92 E0.00000
G1 E4.00000 F2400
G92 E0.00000
G1 X183.687 Y96.288 E0.01842 F960
G1 X182.838 Y96.288 E0.04128
G1 X184.170 Y97.620 E0.09202
G1 X184.170 Y98.469 E0.11488
G1 X181.990 Y96.288 E0.19796
G1 X181.141 Y96.288 E0.22082
G1 X184.170 Y99.317 E0.33622
G1 X184.170 Y100.166 E0.35908
G1 X180.293 Y96.288 E0.50681
G1 X179.444 Y96.288 E0.52967
G1 X184.170 Y101.014 E0.70973
G1 X184.170 Y101.863 E0.73259
G1 X178.596 Y96.288 E0.94498
G1 X177.747 Y96.288 E0.96784
G1 X184.170 Y102.712 E1.21256
G1 X184.170 Y103.560 E1.23542
G1 X176.899 Y96.288 E1.51247
G1 X176.050 Y96.288 E1.53533
G1 X184.170 Y104.409 E1.84471
G1 X184.170 Y105.257 E1.86757
G1 X175.202 Y96.288 E2.20927
G1 X174.353 Y96.288 E2.23213
G1 X184.170 Y106.106 E2.60617
G1 X184.170 Y106.954 E2.62903
G1 X173.504 Y96.288 E3.03539
G1 X172.656 Y96.288 E3.05825
G1 X184.170 Y107.803 E3.49694
G1 X184.170 Y108.651 E3.51980
G1 X171.807 Y96.288 E3.99082
G1 X170.959 Y96.288 E4.01368
G1 X184.170 Y109.500 E4.51703
G1 X184.170 Y110.348 E4.53989
G1 X170.110 Y96.288 E5.07557
G1 X169.262 Y96.288 E5.09843
G1 X184.170 Y111.197 E5.66644
G1 X184.170 Y112.045 E5.68930
G1 X168.413 Y96.288 E6.28963
G1 X167.565 Y96.288 E6.31249
G1 X184.170 Y112.894 E6.94516
G1 X184.170 Y113.742 E6.96802
G1 X166.716 Y96.288 E7.63301
G1 X165.868 Y96.288 E7.65587
G1 X184.170 Y114.591 E8.35319
G1 X184.170 Y115.439 E8.37605
G1 X165.019 Y96.288 E9.10571
G1 X164.171 Y96.288 E9.12857
G1 X184.170 Y116.288 E9.89055
G1 X184.170 Y117.136 E9.91341
G1 X163.322 Y96.288 E10.70772
G1 X162.474 Y96.288 E10.73058
G1 X184.170 Y117.985 E11.55721
G1 X184.170 Y118.834 E11.58007
G1 X161.625 Y96.288 E12.43904
G1 X160.777 Y96.288 E12.46190
G1 X184.170 Y119.682 E13.35320
G1 X184.170 Y120.531 E13.37606
G1 X159.928 Y96.288 E14.29968
G1 X159.079 Y96.288 E14.32254
G1 X184.170 Y121.379 E15.27849
G1 X184.170 Y122.228 E15.30135
G1 X158.231 Y96.288 E16.28964
G1 X157.382 Y96.288 E16.31250
G1 X184.170 Y123.076 E17.33311
G1 X184.170 Y123.925 E17.35597
G1 X156.534 Y96.288 E18.40891
G1 X155.685 Y96.288 E18.43177
