; G-Code generated by Simplify3D(R) Version 5.1.2
; Oct 7, 2023 at 2:16:50 PM
; Settings Summary
;   processName,Process 1
;   autoConfigureMaterial,PLA
;   autoConfigureQuality,High
;   targetModels,Corne_Chocolate_Left_usb
;   profileName,Creality Ender 3 V2
;   profileVersion,2022-11-13 08:00:00
;   app,S3D-Software 5.1.2
;   technology,fff
;   baseProfile,
;   extruder,Primary Extruder
;   toolheadNumber,0
;   nozzleDiameter,0.40000
;   extrusionMultiplier,0.90000
;   extrusionWidthMode,manual
;   extrusionWidth,0.40000
;   useRetraction,1
;   retractDistance,4.00000
;   extraRestartDistance,0.00000
;   retractVerticalLift,0.00000
;   retractSpeed,2400.00000
;   useCoasting,0
;   coastingDistance,0.20000
;   useWiping,0
;   wipingDistance,5.00000
;   speedMaxFlowRate,1000.00000
;   toolheadOffsetX,0.00000
;   toolheadOffsetY,0.00000
;   filamentDiameter,1.75000
;   filamentPricePerKilogram,46.00000
;   filamentDensity,1.25000
;   primaryExtruder,Primary Extruder
;   layerHeight,0.10000
;   topSolidLayers,4
;   bottomSolidLayers,4
;   outlinePerimeters,2
;   useVaseMode,0
;   useAdaptiveLayerHeights,0
;   minAdaptiveLayerHeight,0.10000
;   maxAdaptiveLayerHeight,0.30000
;   adaptiveSmoothingLevel,5
;   horizontalOuterCompensation,0.00000
;   horizontalInnerCompensation,0.00000
;   firstLayerUnits,percentage
;   firstLayerHeightPercentage,120
;   firstLayerWidthPercentage,150
;   firstLayerSpeedPercentage,50
;   firstLayerHeightAbsolute,0.30000
;   firstLayerWidthAbsolute,0.40000
;   firstLayerSpeedAbsolute,900.00000
;   startPointStrategy,closest
;   alignStartPointsX,0.00000
;   alignStartPointsY,0.00000
;   restrictStartPoints,1
;   perimeterPrintingOrder,inside_out
;   islandPrintingOrder,closest
;   printInfillBeforePerimeters,0
;   useSkirt,1
;   skirtExtruder,Primary Extruder
;   skirtLayers,2
;   skirtOffset,4.00000
;   skirtOutlines,2
;   useRaft,0
;   raftExtruder,Primary Extruder
;   raftBaseLayers,2
;   raftTopLayers,3
;   raftOffset,3.00000
;   raftSeparationDistance,0.14000
;   raftSpeedUnits,percentage
;   raftSpeedPercentage,30
;   raftSpeedAbsolute,600.00000
;   usePrimePillar,0
;   primePillarExtruder,All Extruders
;   primePillarWidth,12.00000
;   primePillarLocation,north_west
;   primePillarSpeedPercentage,100
;   primePillarInfillPercentage,100
;   autoStopPrimePillar,1
;   primePillarLayersAfterAutoStop,0
;   useOozeShield,0
;   oozeShieldExtruder,All Extruders
;   oozeShieldOffset,2.00000
;   oozeShieldOutlines,1
;   oozeShieldSidewallShape,waterfall
;   oozeShieldSidewallAngle,30
;   oozeShieldSpeedPercentage,100
;   autoStopOozeShield,1
;   oozeShieldLayersAfterAutoStop,0
;   sparseInfillExtruder,Primary Extruder
;   sparseInfillPattern,rectilinear
;   sparseInfillRotation,0
;   sparseInfillPercentage,30
;   sparseInfillExtrusionWidthPercentage,100
;   sparseInfillCombinedLayers,1
;   denseInfillLayers,0
;   denseInfillPercentage,50
;   infillOutlineOverlapPercentage,15
;   minInfillLength,5.00000
;   externalInfillPattern,rectilinear
;   externalInfillRotation,0
;   solidInfillThresholdArea,25.00000
;   solidInfillExtraExpansion,0.00000
;   useMonotonic,0
;   useDiaphragm,0
;   diaphragmSolidLayers,3
;   diaphragmSpacingLayers,20
;   topLayerExtraExpansion,1.00000
;   topLayerExtrusionModifier,100
;   overrideFanSpeedForTopLayer,0
;   topLayerFanSpeedPercentage,100
;   useIroning,0
;   ironingOutlineOffsetPercentage,50
;   ironingExtrusionWidthPercentage,25
;   ironingExtrusionModifier,15
;   ironingSpeedModifier,30
;   sparseSupportExtruder,Primary Extruder
;   sparseSupportInfillPattern,aligned
;   sparseSupportInfillRotation,0
;   sparseSupportInfillPercentage,40
;   sparseSupportOutlines,0
;   sparseSupportCombinedLayers,1
;   upperDenseSupportLayers,0
;   lowerDenseSupportLayers,0
;   denseSupportExtruder,Primary Extruder
;   denseSupportInfillPercentage,70
;   denseSupportExtraExpansion,0.00000
;   baseSupportLayers,0
;   supportInflationDistance,0.00000
;   supportHorizontalPartOffset,0.30000
;   supportUpperSeparationLayers,1
;   supportLowerSeparationLayers,1
;   temperatureController,Primary Extruder
;   enableTemperatureController,1
;   temperatureNumber,0
;   temperatureType,extruder
;   stabilizeAtStartup,1
;   temperatureSetpoints,1|210
;   useIdleCooldown,0
;   cooldownTemperature,150
;   cooldownRequiredIdleTime,180
;   cooldownReheatTime,60
;   temperatureController,Heated Build Platform
;   enableTemperatureController,1
;   temperatureNumber,0
;   temperatureType,platform
;   stabilizeAtStartup,1
;   temperatureSetpoints,1|60
;   useIdleCooldown,0
;   cooldownTemperature,150
;   cooldownRequiredIdleTime,180
;   cooldownReheatTime,60
;   fan,Cooling Fan
;   fanNumber,0
;   fanType,extruder
;   blipFanToFullPower,0
;   fanSetpoints,1|0,2|100
;   increaseFanForQuickLayers,0
;   fanMaxQuickLayerTime,45.00000
;   fanMinQuickLayerTime,15.00000
;   maxQuickLayerFanSpeedPercentage,100
;   defaultPrintSpeed,2400.00000
;   outerPerimeterSpeedPercentage,50
;   innerPerimeterSpeedPercentage,80
;   topLayerSpeedPercentage,50
;   solidInfillSpeedPercentage,80
;   sparseSupportSpeedPercentage,80
;   denseSupportSpeedPercentage,70
;   travelSpeedXY,4800.00000
;   travelSpeedZ,1000.00000
;   reduceSpeedForQuickLayers,1
;   speedMaxQuickLayerTime,15.00000
;   minQuickLayerSpeedPercentage,20
;   reduceSpeedForShortPerimeters,1
;   speedMaxShortPerimeterLength,80.00000
;   minShortPerimeterSpeedPercentage,50
;   reduceSpeedForMaxFlowRate,0
;   accelXY,500.00000
;   accelZ,100.00000
;   accelE,1000.00000
;   jerkXY,600.00000
;   jerkZ,18.00000
;   jerkE,300.00000
;   exportFileFormat,gcode
;   useStickyCommands,1
;   use5D,1
;   relativeExtrusionDistances,0
;   allowExtruderAxisZeroing,1
;   independentExtruderAxes,0
;   includeM10123,0
;   includeThumbnailImages,0
;   thumbnailImageEncoding,standard
;   thumbnailImageSizes,300|300
;   x3gMachineProfile,r2
;   overrideStepsPerMillimeter,0
;   stepsPerMillimeterX,88.57319
;   stepsPerMillimeterY,88.57319
;   stepsPerMillimeterZ,400.00000
;   stepsPerMillimeterA,96.27520
;   stepsPerMillimeterB,96.27520
;   xyzFileFormatVersion,1
;   makerBotMachineProfile,replicator_5
;   makerBotModelExtruder,mk13
;   makerBotSupportExtruder,mk14_s
;   makerBotModelMaterial,pla
;   makerBotSupportMaterial,pva
;   globalOffsetX,0.00000
;   globalOffsetY,0.00000
;   globalOffsetZ,0.00000
;   applyToolheadOffsets,0
;   buildVolumeShape,rectangular
;   buildVolumeX,220.00000
;   buildVolumeY,220.00000
;   buildVolumeZ,250.00000
;   buildVolumeDiameter,200.00000
;   originOffsetX,-5.00000
;   originOffsetY,-5.00000
;   originOffsetZ,0.00000
;   homingDirectionX,min
;   homingDirectionY,min
;   homingDirectionZ,min
;   mirrorVisualX,0
;   mirrorVisualY,1
;   mirrorVisualZ,0
;   machineBackgroundModel,Creality_Ender3V2.stl
;   startingScript,G28 ; home all axes|G1 X5 Y10 Z0.2 F3000 ; get ready to prime|G92 E0 ; reset extrusion distance|G1 X160 E15 F600 ; prime nozzle|G1 X180 F5000 ; quick wipe
;   preLayerChangeScript,
;   postLayerChangeScript,
;   preRetractionScript,
;   postRetractionScript,
;   preToolChangeScript,
;   postToolChangeScript,
;   processChangeScript,
;   endingScript,G28 X0 ; home X axis|M106 S0 ; turn off cooling fan|M104 S0 ; turn off extruder|M140 S0 ; turn off build platform|M84 ; disable motors
;   postProcessingScript,
;   useBridging,1
;   bridgingThresholdArea,50.00000
;   bridgingInfillExtraExpansion,0.00000
;   bridgingExtrusionModifier,100
;   bridgingSpeedModifier,100
;   overrideFanSpeedForBridging,0
;   bridgingFanSpeedPercentage,100
;   useFixedBridgingAngle,0
;   fixedBridgingAngle,0
;   applyBridgingToPerimeters,0
;   bridgingPerimeterExtraOverlap,0.00000
;   minBridgingPerimeterLength,10.00000
;   useToolChangeRetraction,1
;   toolChangeRetractDistance,12.00000
;   toolChangeExtraRestartDistance,-0.50000
;   toolChangeRetractSpeed,600.00000
;   toolChangePrimeOnFirstUse,0
;   toolChangeRetractAtEnd,0
;   externalThinWallType,perimeters_only
;   internalThinWallType,gap_fill
;   thinWallAllowedOverlapPercentage,10
;   singleExtrusionMinLength,1.00000
;   singleExtrusionMinWidthPercentage,50
;   singleExtrusionMaxWidthPercentage,200
;   singleExtrusionEndpointExtensionDistance,0.20000
;   onlyRetractWhenCrossingOutlines,1
;   retractBetweenLayers,1
;   retractOnTopLayers,0
;   useRetractionMinTravel,0
;   retractionMinTravel,3.00000
;   useRetractionMinExtrusion,0
;   retractionMinExtrusion,3.00000
;   onlyVerticalLiftOnTopLayers,0
;   retractWhileWiping,0
;   wipingMode,outer_perimeter
;   avoidCrossingOutlines,0
;   maxMovementDetourFactor,3.00000
;   openLoopSlicingBehavior,heal
;   openLoopThickenWidth,0.50000
;   slicingRegionRepairMode,positive
G90
M82
M106 S0 P0
M140 S60
M190 S60
M104 S210 T0
M109 S210 T0
G28 ; home all axes
G1 X5 Y10 Z0.2 F3000 ; get ready to prime
G92 E0 ; reset extrusion distance
G1 X160 E15 F600 ; prime nozzle
G1 X180 F5000 ; quick wipe
; process Process 1
; layer 1, Z = 0.1200
T0
G92 E0.00000
G1 E-4.00000 F2400
; feature skirt
; tool H0.1200 W0.600
G1 Z0.1200 F1000
G1 X42.044 Y90.724 F4800
G92 E0.00000
G1 E4.00000 F2400
G92 E0.00000
G1 X43.845 Y89.978 E0.05252 F1200
G1 X99.500 Y89.978 E1.55189
G1 X108.622 Y77.477 E1.96882
G1 X109.340 Y76.818 E1.99507
G1 X110.805 Y75.932 E2.04121
G1 X111.722 Y75.602 E2.06746
G1 X149.000 Y70.060 E3.08280
G1 X166.941 Y59.734 E3.64048
G1 X168.875 Y59.482 E3.69302
G1 X171.304 Y60.138 E3.76080
G1 X172.849 Y61.328 E3.81334
G1 X190.149 Y91.439 E4.74891
G1 X190.480 Y92.680 E4.78353
G1 X190.480 Y160.554 E6.61210
G1 X187.610 Y163.424 E6.72146
G1 X168.616 Y163.424 E7.23316
G1 X166.358 Y165.683 E7.31920
G1 X149.956 Y165.683 E7.76106
G1 X148.202 Y167.437 E7.82791
G1 X146.401 Y168.183 E7.88042
G1 X130.705 Y168.183 E8.30328
G1 X129.201 Y169.687 E8.36060
G1 X127.400 Y170.433 E8.41311
G1 X100.849 Y170.433 E9.12840
G1 X99.048 Y169.687 E9.18092
G1 X97.544 Y168.183 E9.23823
G1 X81.848 Y168.183 E9.66109
G1 X80.047 Y167.437 E9.71361
G1 X78.269 Y165.659 E9.78136
G1 X77.523 Y163.857 E9.83388
G1 X77.523 Y163.432 E9.84533
G1 X43.845 Y163.432 E10.75263
G1 X42.044 Y162.686 E10.80514
G1 X40.266 Y160.908 E10.87290
G1 X39.520 Y159.107 E10.92542
G1 X39.520 Y94.304 E12.67127
G1 X40.266 Y92.503 E12.72378
G1 X42.044 Y90.724 E12.79154
G92 E0.00000
G1 E-4.00000 F2400
G1 X42.384 Y91.233 F4800
G92 E0.00000
G1 E4.00000 F2400
G92 E0.00000
G1 X43.965 Y90.578 E0.04609 F1200
G1 X99.805 Y90.578 E1.55046
G1 X109.071 Y77.879 E1.97400
G1 X109.702 Y77.301 E1.99704
G1 X111.065 Y76.476 E2.03996
G1 X111.869 Y76.186 E2.06299
G1 X149.201 Y70.637 E3.07979
G1 X167.137 Y60.313 E3.63732
G1 X168.834 Y60.093 E3.68343
G1 X171.032 Y60.686 E3.74477
G1 X172.388 Y61.730 E3.79088
G1 X189.589 Y91.669 E4.72111
G1 X189.880 Y92.759 E4.75149
G1 X189.880 Y160.306 E6.57124
G1 X187.361 Y162.824 E6.66721
G1 X168.367 Y162.824 E7.17892
G1 X166.109 Y165.083 E7.26495
G1 X149.570 Y165.083 E7.71054
G1 X149.472 Y165.319 E7.71743
G1 X147.862 Y166.928 E7.77876
G1 X146.282 Y167.583 E7.82484
G1 X130.456 Y167.583 E8.25118
G1 X128.861 Y169.178 E8.31198
G1 X127.280 Y169.833 E8.35806
G1 X100.969 Y169.833 E9.06692
G1 X99.388 Y169.178 E9.11301
G1 X97.793 Y167.583 E9.17379
G1 X81.967 Y167.583 E9.60014
G1 X80.387 Y166.928 E9.64623
G1 X78.777 Y165.319 E9.70755
G1 X78.123 Y163.738 E9.75364
G1 X78.123 Y162.832 E9.77804
G1 X43.965 Y162.832 E10.69828
G1 X42.384 Y162.178 E10.74437
G1 X40.774 Y160.568 E10.80569
G1 X40.120 Y158.988 E10.85178
G1 X40.120 Y94.423 E12.59120
G1 X40.774 Y92.843 E12.63728
G1 X42.384 Y91.233 E12.69861
G92 E0.00000
G1 E-4.00000 F2400
; feature inner perimeter
G1 X102.447 Y95.778 F4800
G92 E0.00000
G1 E4.00000 F2400
G92 E0.00000
G1 X112.913 Y81.435 E0.47836 F960
G1 X113.232 Y81.242 E0.48840
G1 X150.941 Y75.635 E1.51545
G1 X168.555 Y65.497 E2.06299
G1 X184.680 Y93.563 E2.93502
G1 X184.680 Y157.624 E4.66088
G1 X165.727 Y157.624 E5.17150
G1 X165.726 Y157.124 E5.18497
G1 X163.428 Y157.124 E5.24687
G1 X163.428 Y159.883 E5.32117
G1 X144.927 Y159.883 E5.81962
G1 X144.927 Y162.383 E5.88698
G1 X125.925 Y162.383 E6.39889
G1 X125.925 Y164.633 E6.45951
G1 X102.324 Y164.633 E7.09534
G1 X102.324 Y162.383 E7.15597
G1 X83.323 Y162.383 E7.66788
G1 X83.323 Y157.632 E7.79585
G1 X45.320 Y157.632 E8.81967
G1 X45.320 Y95.778 E10.48606
G1 X102.447 Y95.778 E12.02512
; feature outer perimeter
G1 X102.142 Y95.178 F4800
G92 E0.00000
G1 X112.500 Y80.984 E0.47339 F600
G1 X113.025 Y80.666 E0.48992
G1 X150.740 Y75.059 E1.51716
G1 X168.582 Y64.789 E2.07178
G1 X168.888 Y64.872 E2.08031
G1 X185.280 Y93.403 E2.96679
G1 X185.280 Y158.224 E4.71313
G1 X165.128 Y158.224 E5.25604
G1 X165.127 Y157.724 E5.26951
G1 X164.028 Y157.724 E5.29911
G1 X164.028 Y160.483 E5.37342
G1 X145.527 Y160.483 E5.87187
G1 X145.527 Y162.759 E5.93319
G1 X145.302 Y162.983 E5.94173
G1 X126.525 Y162.983 E6.44760
G1 X126.525 Y165.009 E6.50218
G1 X126.301 Y165.233 E6.51072
G1 X101.948 Y165.233 E7.16680
G1 X101.724 Y165.009 E7.17535
G1 X101.724 Y162.983 E7.22992
G1 X82.947 Y162.983 E7.73579
G1 X82.723 Y162.759 E7.74434
G1 X82.723 Y158.232 E7.86627
G1 X44.944 Y158.232 E8.88405
G1 X44.720 Y158.008 E8.89259
G1 X44.720 Y95.403 E10.57923
G1 X44.944 Y95.178 E10.58777
G1 X102.142 Y95.178 E12.12874
; feature solid layer
G1 X83.833 Y158.503 F4800
G92 E0.00000
G1 X87.202 Y161.873 E0.12838 F960
G1 X86.354 Y161.873 E0.15125
G1 X83.833 Y159.352 E0.24730
G1 X83.833 Y160.200 E0.27016
G1 X85.505 Y161.873 E0.33389
G1 X84.657 Y161.873 E0.35675
G1 X83.833 Y161.049 E0.38815
G1 X102.834 Y162.231 F4800
G92 E0.00000
G1 X104.726 Y164.123 E0.07208 F960
G1 X103.877 Y164.123 E0.09494
G1 X102.834 Y163.079 E0.13470
G1 X102.834 Y163.928 E0.15756
G1 X103.029 Y164.123 E0.16499
G92 E0.00000
G1 E-4.00000 F2400
G1 X45.830 Y156.987 F4800
G92 E0.00000
G1 E4.00000 F2400
G92 E0.00000
G1 X45.965 Y157.122 E0.00516 F960
G1 X46.814 Y157.122 E0.02802
G1 X45.830 Y156.139 E0.06550
G1 X45.830 Y155.290 E0.08836
G1 X47.662 Y157.122 E0.15817
G1 X48.511 Y157.122 E0.18104
G1 X45.830 Y154.441 E0.28318
G1 X45.830 Y153.593 E0.30604
G1 X49.359 Y157.122 E0.44051
G1 X50.208 Y157.122 E0.46337
G1 X45.830 Y152.744 E0.63017
G1 X45.830 Y151.896 E0.65303
G1 X51.056 Y157.122 E0.85216
G1 X51.905 Y157.122 E0.87502
G1 X45.830 Y151.047 E1.10648
G1 X45.830 Y150.199 E1.12934
G1 X52.753 Y157.122 E1.39313
G1 X53.602 Y157.122 E1.41599
G1 X45.830 Y149.350 E1.71210
G1 X45.830 Y148.502 E1.73496
G1 X54.450 Y157.122 E2.06341
G1 X55.299 Y157.122 E2.08627
G1 X45.830 Y147.653 E2.44704
G1 X45.830 Y146.805 E2.46990
G1 X56.147 Y157.122 E2.86300
G1 X56.996 Y157.122 E2.88586
G1 X45.830 Y145.956 E3.31129
G1 X45.830 Y145.108 E3.33415
G1 X57.845 Y157.122 E3.79192
G1 X58.693 Y157.122 E3.81477
G1 X45.830 Y144.259 E4.30486
G1 X45.830 Y143.411 E4.32772
G1 X59.542 Y157.122 E4.85014
G1 X60.390 Y157.122 E4.87300
G1 X45.830 Y142.562 E5.42775
G1 X45.830 Y141.714 E5.45061
G1 X61.239 Y157.122 E6.03768
G1 X62.087 Y157.122 E6.06054
G1 X45.830 Y140.865 E6.67995
G1 X45.830 Y140.017 E6.70281
G1 X62.936 Y157.122 E7.35454
G1 X63.784 Y157.122 E7.37740
G1 X45.830 Y139.168 E8.06146
G1 X45.830 Y138.319 E8.08432
G1 X64.633 Y157.122 E8.80071
G1 X65.481 Y157.122 E8.82357
G1 X45.830 Y137.471 E9.57229
G1 X45.830 Y136.622 E9.59516
G1 X66.330 Y157.122 E10.37620
G1 X67.178 Y157.122 E10.39906
G1 X45.830 Y135.774 E11.21244
G1 X45.830 Y134.925 E11.23530
G1 X68.027 Y157.122 E12.08101
G1 X68.875 Y157.122 E12.10387
G1 X45.830 Y134.077 E12.98190
G1 X45.830 Y133.228 E13.00476
G1 X69.724 Y157.122 E13.91513
G1 X70.572 Y157.122 E13.93799
G1 X45.830 Y132.380 E14.88068
G1 X45.830 Y131.531 E14.90354
